X: 67
T:Man from Bundoran, The
M:C|
L:1/8
R:Reel
K:D
dc[|BE~E2 BEcE|BE~E2 BcdB|cA~A2 cAeA|ceef e2dc|!
BE~E2 BEcE|BE~E2 BcdB|cA~A2 cAeA|ceef e2de|]!
f2fe dcBA|effe d3e|f2fe fgaf|ecAc e2de|!
fgfe dcBA|effe ~d3e|f2fe fgaf|ecAc e2dc|]!
